public/icons/04d.svg

<svg width="240" height="240" viewBox="0 0 240 240" fill="none" xmlns="http://www.w3.org/2000/svg">
<path d="M194.969 107.599C194.99 106.973 195 106.345 195 105.714C195 74.9441 170.152 50 139.5 50C115.185 50 94.5218 65.6968 87.0176 87.5468C81.6283 84.7236 75.4999 83.1274 69 83.1274C47.4609 83.1274 30 100.656 30 122.278C30 143.9 47.4609 161.429 69 161.429L139.5 161.429C139.525 161.429 139.55 161.429 139.575 161.429H181.5C197.24 161.429 210 148.619 210 132.818C210 121.908 203.917 112.424 194.969 107.599Z" fill="#303030" fill-opacity="0.7"/>
</svg>

<svg xmlns="http://www.w3.org/2000/svg" width="240" height="240" fill="none" xmlns:v="https://vecta.io/nano"><path d="M194.969 107.599l.031-1.885C195 74.944 170.152 50 139.5 50c-24.315 0-44.978 15.697-52.482 37.547A38.71 38.71 0 0 0 69 83.127c-21.539 0-39 17.529-39 39.151s17.461 39.151 39 39.151h70.5.075H181.5c15.74 0 28.5-12.81 28.5-28.611 0-10.91-6.083-20.394-15.031-25.219z" fill="#303030" fill-opacity=".7"/></svg>
